dest/img/img-trust-16.svg

<svg fill="none" height="40" viewBox="0 0 84 40" width="84" xmlns="http://www.w3.org/2000/svg"><path d="m64.792 14.4104c-7.7042 0-26.7053.0078-26.7053.0078v-14.3763413s20.2728-.0722847 28.5933-.0268784c21.0456 1.1991197 24.9621 37.5115197.2529 39.9850197-5.9605 0-28.8462-.1673-28.8462-.1673v-13.7113h26.8513c7.1186 0 7.1186-11.7032-.146-11.711z" fill="#576472"/><path d="m35.8401 39.8291v-13.7328h-35.84011907v13.7328z" fill="#949ca5"/><g fill="#576472"><path d="m37.2057 21.5938v-1.5775h-1.6627v1.5775z"/><path d="m4.19719 19.1644 2.49184-2.9987h1.71185v8.0826h-1.94171v-5.0433l-2.11426 2.5369h-.29603l-2.09299-2.5369v5.0433h-1.9411214v-8.0826h1.7159914z"/><path d="m12.1112 24.2483v-8.0826h-1.9416v8.0826z"/><path d="m18.48 16.1657 3.4485 8.0826h-2.0847l-.6382-1.5875h-3.497l-.5791 1.5875h-2.0628l3.1483-8.0826zm.1554 5.0749-1.2616-3.1403-1.1464 3.1403z"/><path d="m27.0421 19.1644 2.4913-2.9987h1.7118v8.0826h-1.9417v-5.0433l-2.1142 2.5369h-.2961l-2.0924-2.5369v5.0433h-1.9417v-8.0826h1.7166z"/><path d="m34.9556 24.2483v-8.0826h-1.9417v8.0826z"/><path d="m38.1026 16.1705h3.4285c1.3218 0 2.3683.3776 3.14 1.131.7712.754 1.157 1.7291 1.157 2.9246 0 1.2541-.3906 2.2387-1.1717 2.9539-.7806.7158-1.8951 1.0731-3.3422 1.0731h-3.2116zm1.9418 1.4829v5.1167h1.258c.816 0 1.44-.2336 1.8732-.702.4325-.4684.6488-1.0862.6488-1.8533 0-.7941-.2193-1.419-.6577-1.8761-.4379-.4571-1.0672-.6853-1.8868-.6853z"/><path d="m50.2794 16.1705 3.4485 8.0826h-2.0847l-.6382-1.5869h-3.4969l-.5791 1.5869h-2.0629l3.1489-8.0826zm.156 5.0749-1.2622-3.1403-1.1463 3.1403z"/><path d="m53.7557 16.1705h3.4284c1.3219 0 2.3684.3776 3.1395 1.131.7717.754 1.1576 1.7291 1.1576 2.9246 0 1.2541-.3912 2.2387-1.1718 2.9539-.7811.7158-1.8956 1.0731-3.3421 1.0731h-3.2116zm1.9417 1.4829v5.1167h1.2575c.816 0 1.4406-.2336 1.8731-.702.4326-.4684.6489-1.0862.6489-1.8533 0-.7941-.2193-1.419-.6577-1.8761-.4379-.4571-1.0666-.6853-1.8868-.6853z"/><path d="m67.7595 22.7701v1.483h-5.7424v-8.0826h5.6597v1.4829h-3.718v1.6914h3.5531v1.483h-3.5531v1.9423z"/></g><g fill="#fff"><path d="m5.8772 34.8766v1.7506c-.61159.5317-1.2539.7976-1.92635.7976-.86685 0-1.55762-.3961-2.0723-1.189-.51527-.7922-.77231-1.7697-.77231-2.9305 0-1.1615.27004-2.1467.81131-2.9569.54067-.8096 1.24976-1.2153 2.12726-1.2153.69844 0 1.28875.2348 1.77093.7044v1.7811c-.59149-.5431-1.15226-.8143-1.6823-.8143-.51882 0-.94367.2318-1.27281.6942-.33031.4624-.49459 1.0522-.49459 1.7685 0 .7206.1631 1.3151.48927 1.7841.32618.4684.74336.7026 1.25213.7026.25055 0 .49222-.0538.72563-.1619.23341-.1082.58145-.3466 1.04413-.7152z"/><path d="m9.44733 29.1331c.83787 0 1.51507.4159 2.03157 1.247.5164.8316.7746 1.7989.7746 2.9019 0 1.119-.2623 2.0887-.7859 2.9108-.5241.8215-1.1977 1.232-2.02027 1.232-.83081 0-1.50739-.4087-2.02916-1.2272-.52236-.8173-.78294-1.7894-.78294-2.9156 0-1.1072.25881-2.0751.77704-2.9049.51822-.8293 1.19657-1.244 2.03506-1.244zm0 6.6206c.46386 0 .83727-.2271 1.12097-.6823.2836-.4553.4248-1.0528.4248-1.7924 0-.7433-.1412-1.342-.4248-1.7954-.2837-.4529-.65711-.6793-1.12097-.6793-.46445 0-.83908.2264-1.12449.6793-.2854.4534-.42781 1.0521-.42781 1.7954 0 .7396.14241 1.3371.42781 1.7924.28541.4552.66004.6823 1.12449.6823z"/><path d="m16.7521 29.2586h1.2185v4.5766c0 1.1776-.2116 2.0702-.6347 2.6779-.423.6076-1.0269.9117-1.8128.9117-.7741 0-1.3757-.3077-1.8047-.9231-.4284-.6154-.6429-1.5008-.6429-2.6551v-4.588h1.2185v4.6364c0 .5616.1122 1.0121.3362 1.3508.2245.3388.517.5079.8787.5079.3764 0 .6777-.1727.9035-.5192.2263-.3465.3397-.8395.3397-1.4781z"/><path d="m23.9783 29.2587v8.0407h-1.017l-2.7016-5.1513v5.1513h-1.2184v-8.0407h1.118l2.5999 4.9154v-4.9154z"/><path d="m29.5162 29.2587v1.4829h-1.7768v6.5578h-1.2185v-6.5578h-1.7762v-1.4829z"/><path d="m31.6169 37.2994v-3.7055l-1.921-4.3352h1.4725l1.0578 2.5273 1.0778-2.5273h1.4731l-1.9417 4.2874v3.7533z"/></g></svg>

<svg width="84" height="40" viewBox="0 0 84 40" fill="none" xmlns="http://www.w3.org/2000/svg">
<path d="M64.792 14.4104C57.0878 14.4104 38.0867 14.4182 38.0867 14.4182V0.0418587C38.0867 0.0418587 58.3595 -0.030426 66.68 0.0149803C87.7256 1.2141 91.6421 37.5265 66.9329 40C60.9724 40 38.0867 39.8327 38.0867 39.8327V26.1214C38.0867 26.1214 59.2417 26.1214 64.938 26.1214C72.0566 26.1214 72.0566 14.4182 64.792 14.4104Z" fill="#576472"/>
<path d="M35.8401 39.8291V26.0963H-1.90735e-05V39.8291H35.8401Z" fill="#949CA5"/>
<path d="M37.2057 21.5938V20.0163H35.543V21.5938H37.2057Z" fill="#576472"/>
<path d="M4.19719 19.1644L6.68903 16.1657H8.40088V24.2483H6.45917V19.205L4.34491 21.7419H4.04888L1.95589 19.205V24.2483H0.0147686V16.1657H1.73076L4.19719 19.1644Z" fill="#576472"/>
<path d="M12.1112 24.2483V16.1657H10.1696V24.2483H12.1112Z" fill="#576472"/>
<path d="M18.48 16.1657L21.9285 24.2483H19.8438L19.2056 22.6608H15.7086L15.1295 24.2483H13.0667L16.215 16.1657H18.48ZM18.6354 21.2406L17.3738 18.1003L16.2274 21.2406H18.6354Z" fill="#576472"/>
<path d="M27.0421 19.1644L29.5334 16.1657H31.2452V24.2483H29.3035V19.205L27.1893 21.7419H26.8932L24.8008 19.205V24.2483H22.8591V16.1657H24.5757L27.0421 19.1644Z" fill="#576472"/>
<path d="M34.9556 24.2483V16.1657H33.0139V24.2483H34.9556Z" fill="#576472"/>
<path d="M38.1026 16.1705H41.5311C42.8529 16.1705 43.8994 16.5481 44.6711 17.3015C45.4423 18.0555 45.8281 19.0306 45.8281 20.2261C45.8281 21.4802 45.4375 22.4648 44.6564 23.18C43.8758 23.8958 42.7613 24.2531 41.3142 24.2531H38.1026V16.1705ZM40.0444 17.6534V22.7701H41.3024C42.1184 22.7701 42.7424 22.5365 43.1756 22.0681C43.6081 21.5997 43.8244 20.9819 43.8244 20.2148C43.8244 19.4207 43.6051 18.7958 43.1667 18.3387C42.7288 17.8816 42.0995 17.6534 41.2799 17.6534H40.0444Z" fill="#576472"/>
<path d="M50.2794 16.1705L53.7279 24.2531H51.6432L51.005 22.6662H47.5081L46.929 24.2531H44.8661L48.015 16.1705H50.2794ZM50.4354 21.2454L49.1732 18.1051L48.0269 21.2454H50.4354Z" fill="#576472"/>
<path d="M53.7557 16.1705H57.1841C58.506 16.1705 59.5525 16.5481 60.3236 17.3015C61.0953 18.0555 61.4812 19.0306 61.4812 20.2261C61.4812 21.4802 61.09 22.4648 60.3094 23.18C59.5283 23.8958 58.4138 24.2531 56.9673 24.2531H53.7557V16.1705ZM55.6974 17.6534V22.7701H56.9549C57.7709 22.7701 58.3955 22.5365 58.828 22.0681C59.2606 21.5997 59.4769 20.9819 59.4769 20.2148C59.4769 19.4207 59.2576 18.7958 58.8192 18.3387C58.3813 17.8816 57.7526 17.6534 56.9324 17.6534H55.6974Z" fill="#576472"/>
<path d="M67.7595 22.7701V24.2531H62.0171V16.1705H67.6768V17.6534H63.9588V19.3448H67.5119V20.8278H63.9588V22.7701H67.7595Z" fill="#576472"/>
<path d="M5.8772 34.8766V36.6272C5.26561 37.1589 4.6233 37.4248 3.95085 37.4248C3.084 37.4248 2.39323 37.0287 1.87855 36.2358C1.36328 35.4436 1.10624 34.4661 1.10624 33.3053C1.10624 32.1438 1.37628 31.1586 1.91755 30.3484C2.45822 29.5388 3.16731 29.1331 4.04481 29.1331C4.74325 29.1331 5.33356 29.3679 5.81574 29.8375V31.6186C5.22425 31.0755 4.66348 30.8043 4.13344 30.8043C3.61462 30.8043 3.18977 31.0361 2.86063 31.4985C2.53032 31.9609 2.36604 32.5507 2.36604 33.267C2.36604 33.9876 2.52914 34.5821 2.85531 35.0511C3.18149 35.5195 3.59867 35.7537 4.10744 35.7537C4.35799 35.7537 4.59966 35.6999 4.83307 35.5918C5.06648 35.4836 5.41452 35.2452 5.8772 34.8766Z" fill="white"/>
<path d="M9.44733 29.1331C10.2852 29.1331 10.9624 29.549 11.4789 30.3801C11.9953 31.2117 12.2535 32.179 12.2535 33.282C12.2535 34.401 11.9912 35.3707 11.4676 36.1928C10.9435 37.0143 10.2699 37.4248 9.44733 37.4248C8.61652 37.4248 7.93994 37.0161 7.41817 36.1976C6.89581 35.3803 6.63523 34.4082 6.63523 33.282C6.63523 32.1748 6.89404 31.2069 7.41227 30.3771C7.93049 29.5478 8.60884 29.1331 9.44733 29.1331ZM9.44733 35.7537C9.91119 35.7537 10.2846 35.5266 10.5683 35.0714C10.8519 34.6161 10.9931 34.0186 10.9931 33.279C10.9931 32.5357 10.8519 31.937 10.5683 31.4836C10.2846 31.0307 9.91119 30.8043 9.44733 30.8043C8.98288 30.8043 8.60825 31.0307 8.32284 31.4836C8.03744 31.937 7.89503 32.5357 7.89503 33.279C7.89503 34.0186 8.03744 34.6161 8.32284 35.0714C8.60825 35.5266 8.98288 35.7537 9.44733 35.7537Z" fill="white"/>
<path d="M16.7521 29.2586H17.9706V33.8352C17.9706 35.0128 17.759 35.9054 17.3359 36.5131C16.9129 37.1207 16.309 37.4248 15.5231 37.4248C14.749 37.4248 14.1474 37.1171 13.7184 36.5017C13.29 35.8863 13.0755 35.0009 13.0755 33.8466V29.2586H14.294V33.895C14.294 34.4566 14.4062 34.9071 14.6302 35.2458C14.8547 35.5846 15.1472 35.7537 15.5089 35.7537C15.8853 35.7537 16.1866 35.581 16.4124 35.2345C16.6387 34.888 16.7521 34.395 16.7521 33.7564V29.2586Z" fill="white"/>
<path d="M23.9783 29.2587V37.2994H22.9613L20.2597 32.1481V37.2994H19.0413V29.2587H20.1593L22.7592 34.1741V29.2587H23.9783Z" fill="white"/>
<path d="M29.5162 29.2587V30.7416H27.7394V37.2994H26.5209V30.7416H24.7447V29.2587H29.5162Z" fill="white"/>
<path d="M31.6169 37.2994V33.5939L29.6959 29.2587H31.1684L32.2262 31.786L33.304 29.2587H34.7771L32.8354 33.5461V37.2994H31.6169Z" fill="white"/>
</svg>
